src/components/00-materials/images-raw/Doctor Woman.svg

<svg width="96" height="96" viewBox="0 0 96 96" fill="none" xmlns="http://www.w3.org/2000/svg">
<path d="M53.44 58.53L55.98 68.93L50.55 73.15L54.92 75.65L48.85 87.63M40.69 88.68L46.01 57.4M21.14 58.54L18.58 69.02L24 73.24L19.63 75.73L25.7 87.71M33.86 88.77L28.61 57.4M30.71 67.79H43.71M90.06 31H83.45V24.47C83.4502 24.3413 83.4241 24.214 83.3731 24.0959C83.3222 23.9777 83.2475 23.8713 83.1538 23.7832C83.0601 23.6951 82.9492 23.6271 82.8282 23.5836C82.7071 23.54 82.5784 23.5218 82.45 23.53H75C74.7507 23.53 74.5116 23.629 74.3353 23.8053C74.159 23.9816 74.06 24.2207 74.06 24.47V31H67.4C67.1507 31 66.9116 31.099 66.7353 31.2753C66.559 31.4516 66.46 31.6907 66.46 31.94V39.43C66.46 39.6793 66.559 39.9184 66.7353 40.0947C66.9116 40.271 67.1507 40.37 67.4 40.37H74V46.92C74 47.1693 74.099 47.4084 74.2753 47.5847C74.4516 47.761 74.6907 47.86 74.94 47.86H82.5C82.6284 47.8682 82.7571 47.85 82.8782 47.8064C82.9992 47.7629 83.1101 47.6949 83.2038 47.6068C83.2975 47.5187 83.3722 47.4123 83.4231 47.2941C83.4741 47.176 83.5002 47.0487 83.5 46.92V40.39H90.11C90.3593 40.39 90.5984 40.291 90.7747 40.1147C90.951 39.9384 91.05 39.6993 91.05 39.45V32C91.0587 31.8673 91.0391 31.7342 90.9926 31.6096C90.946 31.485 90.8736 31.3717 90.78 31.2772C90.6864 31.1827 90.5739 31.1091 90.4498 31.0613C90.3256 31.0135 90.1928 30.9926 90.06 31ZM43.52 26.63H32.34C27.34 26.63 23.64 30.31 23.64 30.31V38.9C23.64 47.03 28.64 53.63 37.31 53.63C45.98 53.63 51 47 51 38.9V23C51 23 47.25 26.63 43.52 26.63Z" stroke="#00008F" stroke-width="2" stroke-linecap="round" stroke-linejoin="round"/>
<path d="M16.18 24.5101C16.2117 19.836 18.0983 15.3659 21.4249 12.0824C24.7515 8.79889 29.2459 6.97083 33.92 7.0001H36.64C43.29 7.0001 58.44 8.3401 58.44 21.7201V43.7201C58.4266 45.4647 58.8839 47.1806 59.7639 48.6871C60.6438 50.1935 61.9138 51.4348 63.44 52.2801C62.6761 53.8175 61.5612 55.1536 60.1853 56.1803C58.8094 57.207 57.2113 57.8955 55.52 58.1901L53.47 58.5301M28.61 50.6801V57.3101M46.01 50.6801V57.3101" stroke="#00008F" stroke-width="2" stroke-linecap="round" stroke-linejoin="round"/>
<path d="M46 57.4001L56.07 58.9301C59.8193 59.4758 63.2485 61.348 65.7348 64.2069C68.2211 67.0657 69.5997 70.7214 69.62 74.5101V80.2501C69.6169 81.3931 69.216 82.4994 68.4861 83.3789C67.7562 84.2584 66.7428 84.8564 65.62 85.0701L52.34 87.5901C42.4082 89.4702 32.2118 89.4702 22.28 87.5901L9 85.0701C7.87719 84.8564 6.86382 84.2584 6.1339 83.3789C5.40399 82.4994 5.00307 81.3931 5 80.2501V74.5101C5.01998 70.7229 6.3971 67.0684 8.8814 64.2098C11.3657 61.3512 14.7926 59.478 18.54 58.9301L28.61 57.4001" stroke="#00008F" stroke-width="2" stroke-linecap="round" stroke-linejoin="round"/>
<path d="M21.15 58.5401L19.15 58.2101C17.446 57.9152 15.8348 57.2253 14.4456 56.1955C13.0563 55.1657 11.9276 53.8247 11.15 52.2801C12.6762 51.4348 13.9461 50.1936 14.8261 48.6871C15.706 47.1806 16.1634 45.4647 16.15 43.7201V24.1301" stroke="#00008F" stroke-width="2" stroke-linecap="round" stroke-linejoin="round"/>
</svg>

<svg width="96" height="96" viewBox="0 0 96 96" fill="none" xmlns="http://www.w3.org/2000/svg"><path d="M53.44 58.53l2.54 10.4-5.43 4.22 4.37 2.5-6.07 11.98m-8.16 1.05l5.32-31.28m-24.87 1.14l-2.56 10.48L24 73.24l-4.37 2.49 6.07 11.98m8.16 1.06L28.61 57.4m2.1 10.39h13M90.06 31h-6.61v-6.53a.94.94 0 00-1-.94H75a.94.94 0 00-.94.94V31H67.4a.94.94 0 00-.94.94v7.49a.94.94 0 00.94.94H74v6.55a.94.94 0 00.94.94h7.56a.94.94 0 001-.94v-6.53h6.61a.94.94 0 00.94-.94V32a.94.94 0 00-.99-1zm-46.54-4.37H32.34c-5 0-8.7 3.68-8.7 3.68v8.59c0 8.13 5 14.73 13.67 14.73S51 47 51 38.9V23s-3.75 3.63-7.48 3.63z" stroke="#00008F" stroke-width="2" stroke-linecap="round" stroke-linejoin="round"/><path d="M16.18 24.51A17.63 17.63 0 0133.92 7h2.72c6.65 0 21.8 1.34 21.8 14.72v22a9.7 9.7 0 005 8.56 10.94 10.94 0 01-7.92 5.91l-2.05.34m-24.86-7.85v6.63m17.4-6.63v6.63" stroke="#00008F" stroke-width="2" stroke-linecap="round" stroke-linejoin="round"/><path d="M46 57.4l10.07 1.53a15.83 15.83 0 0113.55 15.58v5.74a4.92 4.92 0 01-4 4.82l-13.28 2.52a80.807 80.807 0 01-30.06 0L9 85.07a4.92 4.92 0 01-4-4.82v-5.74a15.83 15.83 0 0113.54-15.58l10.07-1.53" stroke="#00008F" stroke-width="2" stroke-linecap="round" stroke-linejoin="round"/><path d="M21.15 58.54l-2-.33a11.07 11.07 0 01-8-5.93 9.7 9.7 0 005-8.56V24.13" stroke="#00008F" stroke-width="2" stroke-linecap="round" stroke-linejoin="round"/></svg>
